svg/justvector/designfloat.svg

<svg xmlns="http://www.w3.org/2000/svg" viewBox="0 0 100 100" enable-background="new 0 0 100 100"><path d="m56 27.779v-8.812c12 2.771 20.652 11.03 23.411 24.03h-8.769c-2.272-8-7.642-12.938-14.642-15.221m-13-.007v-8.805c-14 2.771-21.354 11.03-24.11 24.03h8.773c2.275-8 8.341-12.938 15.341-15.228m-15.341 27.23h-8.773c2.763 15 10.114 21.971 24.11 24.74v-8.805c-7-2.281-13.06-8.935-15.341-15.935m61.28-5.64c0 22.06-17.811 39.951-39.786 39.951-21.974 0-39.787-17.887-39.787-39.951 0-22.07 17.813-39.95 39.787-39.95 21.976 0 39.786 17.881 39.786 39.95m-3.986-.005c0-19.854-16.03-35.953-35.803-35.953-19.775 0-35.802 16.1-35.802 35.953 0 19.857 16.03 35.945 35.802 35.945 19.773.0001 35.803-16.09 35.803-35.945m-35.803 18.212c-10.02-.012-18.12-8.154-18.14-18.207.019-10.06 8.122-18.2 18.14-18.22 10.02.02 18.12 8.154 18.14 18.22-.016 10.05-8.114 18.2-18.14 18.207m14.11-18.207c0-7.827-6.313-14.175-14.11-14.175s-14.11 6.348-14.11 14.175c0 7.822 6.317 14.163 14.11 14.163s14.11-6.34 14.11-14.163m-7.26 21.576v8.805c12-2.77 20.652-9.741 23.411-24.741h-8.769c-2.276 7-7.642 13.654-14.642 15.936m34.2 1.737c-2.435 0-4.411 1.982-4.411 4.428s1.977 4.428 4.411 4.428c2.434 0 4.403-1.982 4.403-4.428s-1.969-4.428-4.403-4.428m-10.656 11.286c-3.115 0-5.635 2.53-5.635 5.659 0 3.12 2.52 5.656 5.635 5.656 3.107 0 5.634-2.536 5.634-5.656 0-3.129-2.527-5.659-5.634-5.659m9.251-25.671c-1.418 0-2.572 1.158-2.572 2.582s1.154 2.581 2.572 2.581c1.425 0 2.576-1.157 2.576-2.581s-1.151-2.582-2.576-2.582m-77.985 29.944c-1.566 0-2.831 1.274-2.831 2.841 0 1.575 1.265 2.85 2.831 2.85 1.56 0 2.829-1.274 2.829-2.85.0001-1.566-1.269-2.841-2.829-2.841m-.89-14.95c-1.495 0-2.707 1.211-2.707 2.713 0 1.495 1.212 2.717 2.707 2.717 1.496 0 2.701-1.222 2.701-2.717 0-1.502-1.205-2.713-2.701-2.713m8.839 6.842c-2 0-3.626 1.631-3.626 3.642 0 2.02 1.625 3.641 3.626 3.641 2.01 0 3.627-1.626 3.627-3.641 0-2.01-1.619-3.642-3.627-3.642m71.47-55.14c-1.042 0-1.884.845-1.884 1.898 0 1.04.842 1.893 1.884 1.893 1.047 0 1.891-.853 1.891-1.893 0-1.053-.844-1.898-1.891-1.898m-82.44-7.964c-1.754 0-3.186 1.431-3.186 3.199 0 1.761 1.432 3.192 3.186 3.192 1.761 0 3.187-1.432 3.187-3.192 0-1.769-1.426-3.199-3.187-3.199m7.311-11.745c-2.215 0-4 1.795-4 4.02 0 2.217 1.787 4.01 4 4.01 2.209 0 3.997-1.794 3.997-4.01 0-2.224-1.788-4.02-3.997-4.02m-6.271 24.898c-1.111 0-2.01.903-2.01 2.02 0 1.11.896 2.02 2.01 2.02 1.109 0 2.01-.905 2.01-2.02 0-1.114-.901-2.02-2.01-2.02"/></svg>

<?xml version="1.0" encoding="iso-8859-1"?>
<!-- Generator: Adobe Illustrator 15.0.0, SVG Export Plug-In . SVG Version: 6.00 Build 0)  -->
<!DOCTYPE svg PUBLIC "-//W3C//DTD SVG 1.1//EN" "http://www.w3.org/Graphics/SVG/1.1/DTD/svg11.dtd">
<svg version="1.1" id="Icons" xmlns="http://www.w3.org/2000/svg" xmlns:xlink="http://www.w3.org/1999/xlink" x="0px" y="0px"
	 width="100px" height="100px" viewBox="0 0 100 100" style="enable-background:new 0 0 100 100;" xml:space="preserve">
<path id="DesignFloat" d="M56,27.779v-8.812C68,21.738,76.652,30,79.411,43h-8.769C68.37,35,63,30.062,56,27.779z M43,27.772v-8.805
	C29,21.738,21.646,30,18.886,43h8.773C29.934,35,36,30.062,43,27.772z M27.659,55h-8.773C21.649,70,29,76.971,43,79.74v-8.805
	C36,68.654,29.938,62,27.659,55z M88.939,49.36c0,22.064-17.811,39.951-39.786,39.951c-21.974,0-39.787-17.887-39.787-39.951
	c0-22.069,17.813-39.95,39.787-39.95C71.129,9.41,88.939,27.291,88.939,49.36z M84.953,49.355c0-19.854-16.03-35.953-35.803-35.953
	c-19.775,0-35.802,16.1-35.802,35.953c0,19.857,16.026,35.945,35.802,35.945C68.923,85.301,84.953,69.213,84.953,49.355z
	 M49.15,67.567c-10.02-0.012-18.123-8.154-18.142-18.207c0.019-10.065,8.122-18.2,18.142-18.22
	c10.023,0.02,18.122,8.154,18.138,18.22C67.272,59.413,59.174,67.556,49.15,67.567z M63.26,49.36
	c0-7.827-6.313-14.175-14.106-14.175S35.042,41.533,35.042,49.36c0,7.822,6.317,14.163,14.111,14.163S63.26,57.183,63.26,49.36z
	 M56,70.936v8.805C68,76.971,76.652,70,79.411,55h-8.769C68.366,62,63,68.654,56,70.936z M90.203,72.673
	c-2.435,0-4.411,1.982-4.411,4.428s1.977,4.428,4.411,4.428c2.434,0,4.403-1.982,4.403-4.428S92.637,72.673,90.203,72.673z
	 M79.547,83.959c-3.115,0-5.635,2.53-5.635,5.659c0,3.12,2.52,5.656,5.635,5.656c3.107,0,5.634-2.536,5.634-5.656
	C85.181,86.489,82.654,83.959,79.547,83.959z M88.798,58.288c-1.418,0-2.572,1.158-2.572,2.582s1.154,2.581,2.572,2.581
	c1.425,0,2.576-1.157,2.576-2.581S90.223,58.288,88.798,58.288z M10.813,88.232c-1.566,0-2.831,1.274-2.831,2.841
	c0,1.575,1.265,2.85,2.831,2.85c1.56,0,2.829-1.274,2.829-2.85C13.643,89.507,12.373,88.232,10.813,88.232z M9.923,73.282
	c-1.495,0-2.707,1.211-2.707,2.713c0,1.495,1.212,2.717,2.707,2.717c1.496,0,2.701-1.222,2.701-2.717
	C12.624,74.493,11.419,73.282,9.923,73.282z M18.762,80.124c-2.001,0-3.626,1.631-3.626,3.642c0,2.015,1.625,3.641,3.626,3.641
	c2.008,0,3.627-1.626,3.627-3.641C22.389,81.755,20.77,80.124,18.762,80.124z M90.231,24.983c-1.042,0-1.884,0.845-1.884,1.898
	c0,1.04,0.842,1.893,1.884,1.893c1.047,0,1.891-0.853,1.891-1.893C92.122,25.828,91.278,24.983,90.231,24.983z M7.792,17.019
	c-1.754,0-3.186,1.431-3.186,3.199c0,1.761,1.432,3.192,3.186,3.192c1.761,0,3.187-1.432,3.187-3.192
	C10.979,18.449,9.553,17.019,7.792,17.019z M15.103,5.274c-2.215,0-4.002,1.795-4.002,4.019c0,2.217,1.787,4.011,4.002,4.011
	c2.209,0,3.997-1.794,3.997-4.011C19.1,7.069,17.312,5.274,15.103,5.274z M8.832,30.172c-1.111,0-2.008,0.903-2.008,2.017
	c0,1.11,0.896,2.016,2.008,2.016c1.109,0,2.01-0.905,2.01-2.016C10.842,31.075,9.941,30.172,8.832,30.172z"/>
</svg>
